X: 211
T: Miss L Montgomery of Skelmorlie's Strathspey
M: C
L: 1/8
Q:1/4=170
K:D % 2 sharps
% (c) SSF July 2006
F|
"D"D2D>d "Bm"dc BA|"G"BA Bd "A7"e<E EF|
"D"D2 D>d "Bm"dc BA|"G"B/2c/2d "A7"e/2f/2g "D"f<dd:||\
f/2g/2|
"D"a>A a>f "G"a>d b>a|"D"a>d a>f "A7"f<e ef/2g/2|
"D"a>A a>f ad "G"b>a|"D"A>d "A7"ed/2e/2 "D"fd df/2g/2|\
"D"a>A a>f "G"a>d b>a|"D"a>d a>f "A7"f<e ef|
"D"D2 D>d "Bm"dc BA|"G"B/2c/2d "A7"e/2f/2g "D"fd||
%  <A name="D1X212">



